X:1
T:He that hath made his refuge God
T:He that hath made his refuge God - Safety (Thomas Clark)
C:Thomas Clark
Z:p3, A Fifth Set of
Z:Psalm & Hymn Tunes,
Z:London: [c1809]
%%score [ 1 2 3 4 ]
L:1/8
M:4/4
K:Bb
V:1 treble nm="Air" snm="S."
V:2 treble nm="[Alto]" snm="A."
V:3 treble-8 transpose=-12 nm="Tenor" snm="T."
V:4 bass nm="[Bass]" snm="B."
V:1
 f2 fe d2 B2 | c2 A2 B2 z d | c2 B2 (ABc)d | A2 G2 !fermata!F3"^Duett"!p! D | (G^F)(GA) (BA)(Bc) | %5
w: Thrice hap- py man! thy|ma- ker’s care Shall|keep thee from _ _ the|fow- ler’s snare; Sa-|tan, _ the _ fow- * ler, _|
w: He that hath made his|re- fuge God Shall|find a most _ _ se-|cure a- bode, Shall|walk _ all _ day _ be- *|
w: Then will I say, My|God, thy pow’r Shall|be my for- * * tress|and my tow’r; I,|that _ am _ form’d _ of _|
 d2 (cB) Adgd | e6 (dc) | B2 A2 !fermata!G3 ||!f! F | B2 c2 (d>e f)B | e2 d2 c2 z f | %11
w: who be- * trays Un- guard- ed|souls a _|thou- sand ways,|Sa-|tan, the fow- * * ler,|who be- trays Un-|
w: neath his _ shade, And there at|night shall _|rest his head,|Shall|walk all day _ _ be-|neath his shade, And|
w: fee- ble _ dust, Make thine al-|migh- ty _|arm my trust,|I,|that am form’d _ _ of|fee- ble dust, Make|
 (ed)(cB) (gf)(fe) | d2 c2 B4 |] %13
w: guard- * ed _ souls _ a _|thou- sand ways.|
w: there _ at _ night _ shall _|rest his head.|
w: thine _ al- * migh- * ty _|arm my trust.|
V:2
 F2 FF F2 F2 | G2 F2 F2 z F | F2 =E2 F3 F | F2 =E2 !fermata!F3 z | %4
w: Thrice hap- py man! thy|ma- ker’s care Shall|keep thee from the|fow- ler’s snare;|
w: He that hath made his|re- fuge God Shall|find a most se-|cure a- bode,|
w: Then will I say, My|God, thy pow’r Shall|be my for- tress|and my tow’r;|
"^["!p!"^]" z2 z"^2nd. Treble" D (G^F)(GA) | BBAG ^F z z2 | z GcG A2 (BA) | G2 ^F2 !fermata!G3 || %8
w: Sa- tan, _ the _|fow- ler, who be- trays|Un- guard- ed souls a _|thou- sand ways,|
w: Shall walk _ all _|day be- neath his shade,|And there at night shall _|rest his head,|
w: I, that _ am _|form’d of fee- ble dust,|Make thine al- migh- ty _|arm my trust,|
"^["!f!"^]" D | F2 F2 F3 F | (EC) F2 F2 z F | F2 F2 (ED)(FG) | F2 E2 D4 |] %13
w: Sa-|tan, the fow- ler,|who _ be- trays Un-|guard- ed souls _ a _|thou- sand ways.|
w: Shall|walk all day be-|neath _ his shade, And|there at night _ shall _|rest his head.|
w: I,|that am form’d of|fee- * ble dust, Make|thine al- migh- * ty _|arm my trust.|
V:3
 d2 dc B2 B2 | e2 c2 d2 z B | c2 c2 (cBA)d | c2 B2 !fermata!A3 z | z8 | z8 | z8 | z7 ||!f! B | %9
w: Thrice hap- py man! thy|ma- ker’s care Shall|keep thee from _ _ the|fow- ler’s snare;|||||Sa-|
w: He that hath made his|re- fuge God Shall|find a most _ _ se-|cure a- bode,|||||Shall|
w: Then will I say, My|God, thy pow’r Shall|be my for- * * tress|and my tow’r;|||||I,|
 B2 A2 (B>c d)B | (GA) B2 A2 z c | B2 (cd) B2 B2 | B2 A2 B4 |] %13
w: tan, the fow- * * ler,|who _ be- trays Un-|guard- ed _ souls a|thou- sand ways.|
w: walk all day _ _ be-|neath _ his shade, And|there at _ night shall|rest his head.|
w: that am form’d _ _ of|fee- * ble dust, Make|thine al- * migh- ty|arm my trust.|
V:4
 B,2 B,"^65"A, B,2"^6" D,2 |"^6" E,2 F,2 B,,2 z B, |"^6" A,2"^Y43" G,2 (F,G,"^6"A,)B, | %3
w: Thrice hap- py man! thy|ma- ker’s care Shall|keep thee from _ _ the|
w: He that hath made his|re- fuge God Shall|find a most _ _ se-|
w: Then will I say, My|God, thy pow’r Shall|be my for- * * tress|
"^64" C2"^7§" C,2 !fermata!F,3 z | z4 z2"^["!p!"^]" z"^Org:" F, | %5
w: fow- ler’s snare;||
w: cure a- bode,||
w: and my tow’r;||
 B,,2"^86""^75" C,2"^#" D,2"^6" B,,2 |"^6" G,2 A,"^64"B,"^6" C2"^6" B,"^6"C | %7
w: ||
w: ||
w: ||
"^64" D2"^5#" D,2 !fermata!G,3 || %8
w: |
w: |
w: |
"^Notes: The order of parts in the source is Tenor - [Alto] - Air - [Bass], with both the Tenor and Alto parts printed in thetreble clef an octave above sounding pitch. In the duet section, the 2nd Treble part is printed on the Tenor stave in thesource. Only the first verse of the text is underlaid in the source: five subsequent verses have been added editorially.""^["!f!"^]" B,, | %9
w: Sa-|
w: Shall|
w: I,|
"^6" D,2 F,2 B,3"^6" D, |"^5""^6" C,2 B,,2 F,2 z"^6" A, | B,2 B,2"^64""^53" B,2"^6" (D,E,) | %12
w: tan, the fow- ler,|who be- trays Un-|guard- ed souls a _|
w: walk all day be-|neath his shade, And|there at night shall _|
w: that am form’d of|fee- ble dust, Make|thine al- migh- ty _|
"^64" F,2"^75" F,2 B,,4 |] %13
w: thou- sand ways.|
w: rest his head.|
w: arm my trust.|

